assets/misc-grey/MiscGrey99.svg

<svg width="39" height="39" viewBox="0 0 39 39" fill="none" xmlns="http://www.w3.org/2000/svg">
<path fill-rule="evenodd" clip-rule="evenodd" d="M19.41 21.6901C18.11 21.6901 17.05 20.6301 17.05 19.3301C17.05 18.0301 18.11 16.9701 19.41 16.9701C20.71 16.9701 21.77 18.0301 21.77 19.3301C21.77 20.6301 20.71 21.6901 19.41 21.6901ZM19.41 13.9701C16.45 13.9701 14.05 16.3801 14.05 19.3301C14.05 22.2901 16.45 24.6901 19.41 24.6901C22.36 24.6901 24.77 22.2901 24.77 19.3301C24.77 16.3801 22.36 13.9701 19.41 13.9701ZM30.9 30.8201C24.56 37.1601 14.25 37.1601 7.91998 30.8201C1.57998 24.4901 1.57998 14.1801 7.91998 7.84006C11.08 4.67006 15.25 3.09006 19.41 3.09006C23.57 3.09006 27.73 4.67006 30.9 7.84006C37.23 14.1801 37.23 24.4901 30.9 30.8201ZM33.02 5.72006C25.51 -1.78994 13.3 -1.77994 5.79998 5.72006C-1.71002 13.2301 -1.71002 25.4401 5.79998 32.9501C9.54998 36.7001 14.48 38.5701 19.41 38.5701C24.34 38.5701 29.27 36.7001 33.02 32.9501C40.53 25.4401 40.53 13.2301 33.02 5.72006Z" fill="#1A1919"/>
</svg>

<svg xmlns="http://www.w3.org/2000/svg" viewBox="0 0 39 39"><path fill-rule="evenodd" d="M19.41 21.69c-1.3 0-2.36-1.06-2.36-2.36 0-1.3 1.06-2.36 2.36-2.36 1.3 0 2.36 1.06 2.36 2.36 0 1.3-1.06 2.36-2.36 2.36zm0-7.72c-2.96 0-5.36 2.41-5.36 5.36 0 2.96 2.4 5.36 5.36 5.36 2.95 0 5.36-2.4 5.36-5.36 0-2.95-2.41-5.36-5.36-5.36zM30.9 30.82c-6.34 6.34-16.65 6.34-22.98 0-6.34-6.33-6.34-16.64 0-22.98 3.16-3.17 7.33-4.75 11.49-4.75s8.32 1.58 11.49 4.75c6.33 6.34 6.33 16.65 0 22.98zm2.12-25.1c-7.51-7.51-19.72-7.5-27.22 0-7.51 7.51-7.51 19.72 0 27.23 3.75 3.75 8.68 5.62 13.61 5.62s9.86-1.87 13.61-5.62c7.51-7.51 7.51-19.72 0-27.23z" clip-rule="evenodd"/></svg>
